build/images/common/viber.svg

<svg width="25" height="25" viewBox="0 0 25 25" fill="none" xmlns="http://www.w3.org/2000/svg">
<path d="M6.60287 22.578C6.60287 22.1599 6.74224 21.707 6.56803 21.3934C6.39382 21.1146 5.90602 21.0101 5.55759 20.8359C3.71093 19.8603 2.28239 18.4666 1.55069 16.5154C1.23711 15.7489 1.13258 14.8778 0.993208 14.0416C0.853837 13.2054 0.818994 12.3691 0.784152 11.5329C0.714466 9.7211 0.923522 7.90928 1.30679 6.1323C1.51585 5.12187 2.03849 4.2508 2.66565 3.48426C3.64125 2.26477 4.8259 1.25434 6.32413 0.766538C7.1952 0.487797 8.1011 0.348427 9.00701 0.243899C10.2265 0.104528 11.4808 0 12.7003 0C13.9198 0 15.1393 0.104528 16.3588 0.209056C17.1602 0.278741 17.9616 0.418112 18.763 0.592325C20.1567 0.905909 21.3065 1.70729 22.3169 2.68288C23.2925 3.62363 24.0939 4.7386 24.3726 6.09746C24.7907 8.08349 25.0346 10.0695 24.8604 12.0904C24.7559 13.3099 24.6165 14.4945 24.4075 15.714C24.1636 17.1077 23.397 18.1879 22.4214 19.1635C21.411 20.2087 20.2612 21.045 18.7978 21.3585C17.6828 21.6024 16.533 21.707 15.4181 21.8463C14.8257 21.916 14.1986 21.9509 13.5714 21.9509C12.8745 21.9509 12.1428 21.916 11.446 21.916C11.2718 21.916 11.0279 22.0205 10.8885 22.1599C10.0871 22.9613 9.35544 23.7627 8.5889 24.5641C8.03142 25.1215 7.26488 25.1564 6.84677 24.5989C6.67256 24.355 6.60287 24.0066 6.56803 23.7278C6.56803 23.3097 6.60287 22.9613 6.60287 22.578ZM7.57846 21.4979C7.57846 21.8463 7.57846 22.1948 7.57846 22.5432C7.57846 22.8916 7.57846 23.24 7.57846 23.5885C7.57846 23.693 7.64815 23.8324 7.71784 23.8672C7.78752 23.902 7.92689 23.7975 7.99658 23.7278C8.06626 23.693 8.1011 23.6233 8.17079 23.5536C9.35544 22.3341 10.5052 21.1495 11.6899 19.9648C11.8293 19.8255 12.0383 19.7209 12.2474 19.7209C13.9198 19.7209 15.5923 19.5816 17.2647 19.3725C18.2403 19.2331 19.1462 18.9892 19.9476 18.3621C20.9929 17.5258 21.9685 16.6199 22.2124 15.2611C22.4563 13.9719 22.5956 12.6479 22.6653 11.3239C22.7002 10.2437 22.5608 9.12877 22.4563 8.04865C22.3517 6.89884 22.073 5.78388 21.2368 4.84313C20.4006 3.90238 19.4598 3.03131 18.1706 2.78741C16.9163 2.54351 15.662 2.40414 14.3728 2.33446C12.2822 2.22993 10.1568 2.29961 8.1011 2.68288C5.87118 3.06615 4.3381 4.35533 3.57156 6.44589C3.22314 7.38664 3.15345 8.43192 3.08377 9.44235C3.01408 10.7315 3.04892 12.0556 3.15345 13.3447C3.18829 14.1113 3.29282 14.9126 3.57156 15.6443C4.19873 17.3516 5.45306 18.4666 7.12551 19.1286C7.4391 19.268 7.57846 19.4073 7.57846 19.7558C7.54362 20.2784 7.57846 20.9056 7.57846 21.4979Z" fill="white"/>
<path d="M13.8152 14.0763C13.9546 14.0066 14.1288 13.9369 14.2682 13.8324C14.4424 13.693 14.5469 13.484 14.7211 13.3446C15.0696 12.9962 15.4877 12.8568 15.9058 13.1007C16.6723 13.6233 17.4389 14.146 18.1706 14.7383C18.4493 14.9474 18.5538 15.2609 18.3796 15.6094C17.9964 16.4804 17.4389 17.1773 16.4633 17.456C16.3239 17.4909 16.1845 17.4909 16.0452 17.456C12.8048 16.3062 10.0871 14.4944 8.27526 11.4979C7.64809 10.4875 7.19514 9.37254 6.6725 8.29242C6.39376 7.76978 6.49829 7.28198 6.81187 6.79419C7.19514 6.2367 7.68294 5.81859 8.27526 5.53985C8.62369 5.36564 9.00696 5.40048 9.25085 5.71406C9.80834 6.41092 10.331 7.14261 10.8188 7.90915C11.1672 8.46663 10.993 8.91959 10.5052 9.3377C10.4007 9.40738 10.331 9.47707 10.2264 9.54675C9.91286 9.79065 9.84318 10.1042 9.98255 10.4527C10.5749 12.0903 11.655 13.3098 13.3274 13.9369C13.4668 14.0066 13.6062 14.0066 13.8152 14.0763Z" fill="white"/>
<path d="M18.8329 10.8709C18.8329 10.9754 18.9026 11.1148 18.8678 11.2193C18.7981 11.3587 18.6936 11.5677 18.5542 11.6026C18.4497 11.6374 18.2058 11.4284 18.1709 11.3239C18.0664 10.9754 18.0664 10.627 18.0315 10.2786C17.8922 8.22286 16.3243 6.27167 14.3382 5.78387C13.9201 5.67935 13.4672 5.6445 13.0142 5.57482C12.9097 5.57482 12.84 5.53998 12.7355 5.53998C12.4916 5.50513 12.3173 5.43545 12.3173 5.15671C12.3522 4.84312 12.5961 4.77344 12.84 4.77344C15.5229 4.87797 17.8225 6.41104 18.589 9.16361C18.7284 9.72109 18.7981 10.3134 18.8678 10.8709C18.8678 10.8361 18.8678 10.8709 18.8329 10.8709Z" fill="white"/>
<path d="M17.3343 10.4873C17.2995 10.557 17.3343 10.6964 17.2646 10.7661C17.1601 10.8706 17.0207 11.01 16.8814 11.01C16.7768 11.01 16.6026 10.8358 16.6026 10.7312C16.4981 10.348 16.4981 9.89501 16.3936 9.51174C16.0451 8.18772 14.9302 7.28182 13.5365 7.14244C13.3971 7.14244 13.2926 7.1076 13.1532 7.07276C12.9441 7.03792 12.8048 6.89855 12.8396 6.68949C12.8744 6.44559 13.0487 6.34106 13.2577 6.34106C15.3134 6.48043 17.0556 7.76961 17.2995 10.0344C17.2995 10.1389 17.3343 10.3131 17.3343 10.4873Z" fill="white"/>
<path d="M13.7457 7.90918C14.9303 7.94402 15.8362 8.95446 15.7665 10.0694C15.7665 10.3133 15.662 10.5224 15.4181 10.4875C15.2787 10.4527 15.1394 10.2785 15 10.1391C14.9652 10.1043 15 10.0346 15 9.99974C14.8258 9.09383 14.5819 8.84993 13.6411 8.67572C13.3972 8.64088 13.223 8.5015 13.223 8.25761C13.2579 8.01371 13.4321 7.90918 13.676 7.90918C13.7457 7.90918 13.7805 7.90918 13.7457 7.90918Z" fill="white"/>
</svg>

<svg width="25" height="25" fill="none" xmlns="http://www.w3.org/2000/svg"><path d="M6.603 22.578c0-.418.14-.871-.035-1.185-.174-.278-.662-.383-1.01-.557-1.847-.976-3.276-2.37-4.007-4.32-.314-.767-.418-1.638-.558-2.474-.14-.837-.174-1.673-.209-2.51-.07-1.81.14-3.623.523-5.4.209-1.01.731-1.881 1.359-2.648.975-1.22 2.16-2.23 3.658-2.717.871-.28 1.777-.419 2.683-.523C10.227.104 11.481 0 12.7 0c1.22 0 2.44.105 3.659.21.801.069 1.603.208 2.404.382 1.394.314 2.543 1.115 3.554 2.09.976.942 1.777 2.057 2.056 3.415.418 1.986.662 3.972.487 5.993a42.888 42.888 0 01-.453 3.624c-.243 1.394-1.01 2.474-1.986 3.45-1.01 1.045-2.16 1.881-3.623 2.194-1.115.244-2.265.349-3.38.488-.592.07-1.22.105-1.847.105-.697 0-1.428-.035-2.125-.035a.897.897 0 00-.557.244c-.802.801-1.534 1.603-2.3 2.404-.558.558-1.324.592-1.742.035-.174-.244-.244-.592-.279-.871 0-.418.035-.767.035-1.15zm.975-1.08v2.091c0 .104.07.243.14.278.07.035.209-.07.279-.14.07-.034.104-.104.174-.173a343.627 343.627 0 013.519-3.59.823.823 0 01.557-.243c1.673 0 3.345-.14 5.018-.349.975-.139 1.881-.383 2.683-1.01 1.045-.836 2.02-1.742 2.264-3.1.244-1.29.384-2.614.453-3.938.035-1.08-.104-2.195-.209-3.275-.104-1.15-.383-2.265-1.22-3.206-.835-.94-1.776-1.812-3.065-2.056a27.562 27.562 0 00-3.798-.453c-2.09-.104-4.216-.034-6.272.349-2.23.383-3.763 1.672-4.53 3.763-.348.94-.418 1.986-.487 2.996a29.06 29.06 0 00.07 3.903c.034.766.139 1.568.418 2.3.627 1.707 1.881 2.822 3.554 3.484.313.139.452.278.452.627-.034.522 0 1.15 0 1.742z" fill="#fff"/><path d="M13.815 14.076c.14-.07.314-.14.453-.244.174-.139.279-.348.453-.487.349-.349.767-.488 1.185-.244.766.522 1.533 1.045 2.265 1.637.278.21.383.523.209.871-.384.871-.941 1.568-1.917 1.847a.848.848 0 01-.418 0c-3.24-1.15-5.958-2.962-7.77-5.958-.627-1.01-1.08-2.125-1.603-3.206-.278-.522-.174-1.01.14-1.498A3.626 3.626 0 018.275 5.54c.349-.174.732-.14.976.174a24.97 24.97 0 011.568 2.195c.348.558.174 1.01-.314 1.429-.104.07-.174.14-.279.209-.313.244-.383.557-.243.906.592 1.637 1.672 2.857 3.344 3.484.14.07.28.07.488.14zm5.018-3.206c0 .105.07.245.035.35-.07.139-.174.348-.314.383-.104.034-.348-.175-.383-.28-.105-.348-.105-.696-.14-1.044-.139-2.056-1.707-4.007-3.693-4.495-.418-.105-.87-.14-1.324-.21-.104 0-.174-.034-.278-.034-.244-.035-.419-.105-.419-.383.035-.314.28-.384.523-.384 2.683.105 4.983 1.638 5.749 4.39.14.558.21 1.15.279 1.708 0-.035 0 0-.035 0z" fill="#fff"/><path d="M17.334 10.487c-.035.07 0 .21-.07.28-.104.104-.243.243-.383.243-.104 0-.278-.174-.278-.279-.105-.383-.105-.836-.21-1.22-.348-1.323-1.463-2.23-2.857-2.369-.139 0-.243-.034-.383-.07-.209-.034-.348-.173-.313-.383.034-.243.209-.348.418-.348 2.055.14 3.798 1.429 4.041 3.693 0 .105.035.28.035.453z" fill="#fff"/><path d="M13.746 7.91c1.184.034 2.09 1.044 2.02 2.16 0 .243-.104.452-.348.418-.14-.035-.279-.21-.418-.349-.035-.035 0-.104 0-.14-.174-.905-.418-1.15-1.359-1.323-.244-.035-.418-.175-.418-.418.035-.244.21-.349.453-.349h.07z" fill="#fff"/></svg>
